storage/app/icons/phosphoricons/duotone/air-traffic-control-duotone.svg

<svg xmlns="http://www.w3.org/2000/svg" fill="currentColor" viewBox="0 0 256 256"><path d="m223.51 82.73-26.18 72a8 8 0 0 1-7.52 5.27H66.19a8 8 0 0 1-7.52-5.27l-26.18-72A8 8 0 0 1 40 72h176a8 8 0 0 1 7.51 10.73" opacity=".2"/><path d="M229.11 70.82A16 16 0 0 0 216 64h-80V32h16a8 8 0 0 0 0-16h-48a8 8 0 0 0 0 16h16v32H40a16 16 0 0 0-15 21.47l26.19 72a16 16 0 0 0 15 10.53H96v64a8 8 0 0 0 16 0v-64h32v64a8 8 0 0 0 16 0v-64h29.82a16 16 0 0 0 15-10.53l26.19-72a16 16 0 0 0-1.9-14.65M110.68 152l-13.1-72h60.84l-13.1 72ZM40 80h41.32l13.09 72H66.18Zm149.82 72h-28.23l13.09-72H216Z"/></svg>

<svg xmlns="http://www.w3.org/2000/svg" viewBox="0 0 256 256" fill="currentColor"><path d="M223.51,82.73l-26.18,72a8,8,0,0,1-7.52,5.27H66.19a8,8,0,0,1-7.52-5.27l-26.18-72A8,8,0,0,1,40,72H216A8,8,0,0,1,223.51,82.73Z" opacity="0.2"/><path d="M229.11,70.82A16,16,0,0,0,216,64H136V32h16a8,8,0,0,0,0-16H104a8,8,0,0,0,0,16h16V64H40A16,16,0,0,0,25,85.47l26.19,72a16,16,0,0,0,15,10.53H96v64a8,8,0,0,0,16,0V168h32v64a8,8,0,0,0,16,0V168h29.82a16,16,0,0,0,15-10.53l26.19-72A16,16,0,0,0,229.11,70.82ZM110.68,152,97.58,80h60.84l-13.1,72ZM40,80H81.32l13.09,72H66.18Zm149.82,72H161.59l13.09-72H216Z"/></svg>
